!!!Melodie: ich will, solang ich lebe
!!!Typ: Lied
**kern	**silbe	**silbe	**silbe	**silbe	**silbe	**silbe	**silbe	**silbe	**silbe	**silbe	**silbe	**silbe	**silbe	**silbe	**silbe	**silbe	**silbe	**silbe	**silbe	**silbe	**silbe	**silbe
*clefG2	*lang:DE	*lang:DE	*lang:DE	*lang:DE	*lang:DE	*lang:DE	*lang:DE	*lang:DE	*lang:DE	*lang:DE	*lang:DE	*lang:DE	*lang:DE	*lang:DE	*lang:DE	*lang:DE	*lang:DE	*lang:DE	*lang:DE	*lang:DE	*lang:DE	*lang:DE
*k[f#,c#]	*	*	*	*	*	*	*	*	*	*	*	*	*	*	*	*	*	*	*	*	*	*
2a	Kommt,	es	Es	wir	Geht	die	Man	viel	Schmückt	wir	Kommt,	er	Kommt,	eins	Sollt	man	Kommt	ein	Es	es	D’rauf	und
=	=	=	=	=	=	=	=	=	=	=	=	=	=	=	=	=	=	=	=	=	=	=
2b	Kin#	ist	soll	ken#	der	Fleisch	muss	samm#	eu#	sind	Kin#	selbst	Kin#	freu#	wo	trag,	lasst	Tag,	wird	wird	wol#	gründ#
4a	#der,	ge#	uns	#nen	Na#	und	die	#len,	#er	hier	#der,	will	#der,	#et	ein	man	uns	der	nicht	nicht	#len	#lich
2g	lasst	#fähr#	nicht	ja	#tur	Sin#	Pil#	hal#	Herz	frem#	lasst	bei	lasst	sich	Schwa#	hel#	mun#	folgt	lang	lang	wir’s	dem
4e	uns	#lich	ge#	den	ent#	#nen	#ger	#ten,	auf’s	#de	uns	uns	uns	am	#cher	#fe	#ter	dem	mehr	mehr	denn	ab#
=	=	=	=	=	=	=	=	=	=	=	=	=	=	=	=	=	=	=	=	=	=	=
2f#	ge#	ste#	#reu#	Treu#	#ge#	pfle#	wan#	han#	Bes#	Gäs#	ge#	ste#	wan#	an#	fal#	al#	wan#	an#	wäh#	wäh#	wa#	#sa#
4d	#hen,	#hen	#en	#en,	#gen,	#gen,	#deln,	#deln	#te,	#te	#hen,	#hen,	#dern,	#der'n	#len,	#len,	#dern,	#dern,	#ren,	#ren,	#gen,	#gen,
4e	der	in	der	der	so	noch	frei,	macht	sonst	und	der	bei	wir	in	so	man	der	bald	halt	so	es	was
=	=	=	=	=	=	=	=	=	=	=	=	=	=	=	=	=	=	=	=	=	=	=
4f#	A#	die#	schma#	uns	geht’s	schlech#	bloß	un#	we#	zie#	Va#	je#	ge#	die#	greif	pflan#	Weg	fällt	noch	kom#	ist	auf#
4a	#bend	#ser	#le	ge#	ge#	#ter	und	#ser'n	#der	#hen	#ter	#dem	#hen	#sem	der	#ze	kürzt	das	ein	#men	wohl	#hält
4g	kommt	Wü#	Pil#	#ru#	#rad'	Pil#	wahr#	Gang	Leib	bald	ge#	sau#	Hand	wil#	Stärk#	Lieb’	im#	Fleisch	we#	wir	wa#	und
4g	her#	#ste#	#ger#	#fen	und	#ger	#lich	nur	noch	hi#	#het	#ren	in	#den	#'re	und	#mer	ins	#nig	nach	#gens#	be#
=	=	=	=	=	=	=	=	=	=	=	=	=	=	=	=	=	=	=	=	=	=	=
1f#	#bei,	#nei:	#pfad,	hat:	fein;	sein:	leer;	schwer:	Haus;	#naus:	mit;	Tritt;	Hand;	Land.	zu;	Ruh’.	ab;	Grab.	aus;	Haus;	#wert,	#schwert.
=:|	=	=	=	=	=	=	=	=	=	=	=	=	=	=	=	=	=	=	=	=	=	=
2dd	.	Kommt,	.	Kommt,	.	Ver#	.	Wer	.	Ge#	.	er	.	Kommt,	.	Kommt,	.	Nur	.	da	.	Welt,
=	=	=	=	=	=	=	=	=	=	=	=	=	=	=	=	=	=	=	=	=	=	=
2a	.	stär#	.	folgt	.	#lasst	.	will,	.	#mach	.	will	.	lasst	.	bin#	.	noch	.	wird	.	du
4b	.	#ket	.	und	.	die	.	der	.	bringt	.	uns	.	uns	.	#det	.	ein	.	man	.	bist
2g	.	eu#	.	trau#	.	Kre#	.	trag’	.	Un#	.	ma#	.	kind#	.	fes#	.	we#	.	e#	.	uns
4a	.	#ren	.	#et	.	#a#	.	sich	.	#ge#	.	#chen	.	#lich	.	#ter	.	#nig	.	#wig	.	zu
=	=	=	=	=	=	=	=	=	=	=	=	=	=	=	=	=	=	=	=	=	=	=
2.f#	.	Mut,	.	dem,	.	#tur,	.	tot,	.	#mach,	.	Mut,	.	sein,	.	an;	.	Mut,	.	ruh’n,	.	klein;
4f#	.	zur	.	ein	.	und	.	wir	.	ein	.	mit	.	uns	.	ein	.	nur	.	wenn	.	wir
=	=	=	=	=	=	=	=	=	=	=	=	=	=	=	=	=	=	=	=	=	=	=
4g	.	E#	.	je#	.	was	.	rei#	.	Pil#	.	sü#	.	auf	.	je#	.	noch	.	wir	.	geh’n
4g	.	#wig#	.	#der	.	euch	.	#sen	.	#ger	.	#ßen	.	dem	.	#der	.	ein	.	mit	.	durch
4a	.	#keit	.	sein	.	sonst	.	ab#	.	muss	.	Son#	.	Weg	.	sei	.	we#	.	al#	.	Je#
4a	.	zu	.	Ge#	.	will	.	#ge#	.	sich	.	#nen#	.	nicht	.	der	.	#nig	.	#len	.	#su
=	=	=	=	=	=	=	=	=	=	=	=	=	=	=	=	=	=	=	=	=	=	=
2b	.	wan#	.	#sich#	.	bin#	.	#schie#	.	schik#	.	#blik#	.	strei#	.	Klein#	.	treu#	.	From#	.	Lei#
4e	.	#dern,	.	#te,	.	#den,	.	#den,	.	#ken,	.	#ken	.	#ten;	.	#ste,	.	#er,	.	#men	.	#ten
4e	.	von	.	mit	.	lasst	.	mit	.	sich	.	uns	.	die	.	doch	.	von	.	heim	.	hin
=	=	=	=	=	=	=	=	=	=	=	=	=	=	=	=	=	=	=	=	=	=	=
4f#	.	ei#	.	gan#	.	gar	.	we#	.	dul#	.	lok#	.	En#	.	auch	.	al#	.	zu	.	in
4f#	.	#ner	.	#zer	.	euch	.	#ni#	.	#den	.	#ken	.	#gel	.	wohl	.	#len	.	dem	.	die
4g	.	Kraft	.	Wen#	.	selbst	.	#gem	.	und	.	und	.	selbst	.	gern	.	Din#	.	Va#	.	E#
4g	.	zur	.	#dung	.	da#	.	zu#	.	sich	.	er#	.	be#	.	der	.	#gen	.	#ter	.	#wig#
=	=	=	=	=	=	=	=	=	=	=	=	=	=	=	=	=	=	=	=	=	=	=
2a	.	an#	.	rich#	.	#hin#	.	#frie#	.	bük#	.	#quik#	.	#glei#	.	Rein#	.	frei#	.	kom#	.	#kei#
4d	.	#der'n;	.	#te,	.	#den;	.	#den,	.	#ken,	.	#ken;	.	#ten	.	#ste	.	#er,	.	#men;	.	#ten:
4g	.	es	.	steif	.	es	.	wir	.	den	.	ach	.	als	.	auf	.	ge#	.	wie	.	es
=	=	=	=	=	=	=	=	=	=	=	=	=	=	=	=	=	=	=	=	=	=	=
4f#	.	ist	.	nach	.	geht	.	brau#	.	kur#	.	ja,	.	Brü#	.	uns#	.	#wandt	.	wohl,	.	soll
4e	.	das	.	Je#	.	durch’s	.	#chen's	.	#zen	.	wir	.	#der	.	#'rer	.	zum	.	wie	.	nur
4e	.	En#	.	#ru#	.	Ster#	.	nur	.	Pil#	.	ha#	.	uns#	.	Lie#	.	ew#	.	wohl	.	Je#
4d#	.	#de	.	#sa#	.	#ben	.	zur	.	#ger#	.	#ben's	.	#'re	.	#bes#	.	#'gen	.	wird’s	.	#su
=	=	=	=	=	=	=	=	=	=	=	=	=	=	=	=	=	=	=	=	=	=	=
(2e	.	gut,	.	#lem,	.	nur,	.	Not,	.	#tag,	.	gut,	.	Reih’n,	.	#bahn,	.	Gut,	.	tun,	.	sein,
2f#	.	|	.	|	.	|	.	|	.	|	.	|	.	|	.	|	.	|	.	|	.	|
=	=	=	=	=	=	=	=	=	=	=	=	=	=	=	=	=	=	=	=	=	=	=
2g)	.	|	.	|	.	|	.	|	.	|	.	|	.	|	.	|	.	|	.	|	.	|
2f#	.	es	.	steif	.	es	.	wir	.	den	.	ach	.	als	.	auf	.	ge#	.	wie	.	es
=	=	=	=	=	=	=	=	=	=	=	=	=	=	=	=	=	=	=	=	=	=	=
4e	.	ist	.	nach	.	geht	.	brau#	.	kur#	.	ja,	.	Brü#	.	uns#	.	#wandt	.	wohl,	.	soll
4d	.	das	.	Je#	.	durch’s	.	#chen's	.	#zen	.	wir	.	#der	.	#'rer	.	zum	.	wie	.	nur
4d	.	En#	.	#ru#	.	Ster#	.	nur	.	Pil#	.	ha#	.	uns#	.	Lie#	.	ew#	.	wohl	.	Je#
4c#	.	#de	.	#sa#	.	#ben	.	zur	.	#ger#	.	#ben's	.	#'re	.	#bes#	.	#'gen	.	wird’s	.	#su
=	=	=	=	=	=	=	=	=	=	=	=	=	=	=	=	=	=	=	=	=	=	=
1d	.	gut.	.	#lem.	.	nur.	.	Not.	.	#tag.	.	gut.	.	Reih’n.	.	#bahn.	.	Gut.	.	tun.	.	sein.
==	==	==	==	==	==	==	==	==	==	==	==	==	==	==	==	==	==	==	==	==	==	==
*-	*-	*-	*-	*-	*-	*-	*-	*-	*-	*-	*-	*-	*-	*-	*-	*-	*-	*-	*-	*-	*-	*-
